src/styles/image/wave_line.svg

<svg xmlns="http://www.w3.org/2000/svg" version="1.1" xmlns:xlink="http://www.w3.org/1999/xlink" xmlns:svgjs="http://svgjs.com/svgjs" width="1960" height="10" preserveAspectRatio="none" viewBox="0 0 1960 10"><g mask="url(&quot;#SvgjsMask1223&quot;)" fill="none"><path d="M -21.015757856539153,10 C -1.42,8.4 37.78,2.8 76.98424214346085,2 C 116.18,1.2 135.78,6 174.98424214346085,6 C 214.18,6 233.78,2 272.98424214346085,2 C 312.18,2 331.78,6.2 370.98424214346085,6 C 410.18,5.8 429.78,0.8 468.98424214346085,1 C 508.18,1.2 527.78,7 566.9842421434608,7 C 606.18,7 625.78,0.4 664.9842421434608,1 C 704.18,1.6 723.78,9.4 762.9842421434608,10 C 802.18,10.6 821.78,4.4 860.9842421434608,4 C 900.18,3.6 919.78,8.2 958.9842421434608,8 C 998.18,7.8 1017.78,3.4 1056.984242143461,3 C 1096.18,2.6 1115.78,6.6 1154.984242143461,6 C 1194.18,5.4 1213.78,-0.8 1252.984242143461,0 C 1292.18,0.8 1311.78,9.2 1350.984242143461,10 C 1390.18,10.8 1409.78,4.8 1448.984242143461,4 C 1488.18,3.2 1507.78,6.4 1546.984242143461,6 C 1586.18,5.6 1605.78,1.2 1644.984242143461,2 C 1684.18,2.8 1703.78,10 1742.984242143461,10 C 1782.18,10 1801.78,2.2 1840.984242143461,2 C 1880.18,1.8 1899.78,8.6 1938.984242143461,9 C 1978.18,9.4 2032.78,4.2 2036.984242143461,4 C 2041.19,3.8 1975.4,7.2 1960,8" stroke="rgba(238, 238, 238, 1)" stroke-width="2"></path><path d="M -147.519237474413,7 C -127.92,6.4 -88.72,3.6 -49.51923747441298,4 C -10.32,4.4 9.28,9.6 48.48076252558702,9 C 87.68,8.4 107.28,1 146.480762525587,1 C 185.68,1 205.28,9.2 244.480762525587,9 C 283.68,8.8 303.28,0.4 342.480762525587,0 C 381.68,-0.4 401.28,6.2 440.480762525587,7 C 479.68,7.8 499.28,3.6 538.480762525587,4 C 577.68,4.4 597.28,9.6 636.480762525587,9 C 675.68,8.4 695.28,1.2 734.480762525587,1 C 773.68,0.8 793.28,8 832.480762525587,8 C 871.68,8 891.28,1.2 930.480762525587,1 C 969.68,0.8 989.28,7 1028.4807625255871,7 C 1067.68,7 1087.28,1 1126.4807625255871,1 C 1165.68,1 1185.28,7.2 1224.4807625255871,7 C 1263.68,6.8 1283.28,-0.6 1322.4807625255871,0 C 1361.68,0.6 1381.28,9.6 1420.4807625255871,10 C 1459.68,10.4 1479.28,2.6 1518.4807625255871,2 C 1557.68,1.4 1577.28,6.8 1616.4807625255871,7 C 1655.68,7.2 1675.28,3.2 1714.4807625255871,3 C 1753.68,2.8 1773.28,6.2 1812.4807625255871,6 C 1851.68,5.8 1880.98,2 1910.4807625255871,2 C 1939.98,2 1950.1,5.2 1960,6" stroke="rgba(238, 238, 238, 1)" stroke-width="2"></path><path d="M -89.29208139042622,6 C -69.69,5 -30.49,0.6 8.707918609573783,1 C 47.91,1.4 67.51,7.6 106.70791860957378,8 C 145.91,8.4 165.51,3 204.7079186095738,3 C 243.91,3 263.51,7.8 302.70791860957377,8 C 341.91,8.2 361.51,4.2 400.70791860957377,4 C 439.91,3.8 459.51,7.2 498.70791860957377,7 C 537.91,6.8 557.51,3.2 596.7079186095738,3 C 635.91,2.8 655.51,6.2 694.7079186095738,6 C 733.91,5.8 753.51,1.4 792.7079186095738,2 C 831.91,2.6 851.51,9 890.7079186095738,9 C 929.91,9 949.51,2.4 988.7079186095738,2 C 1027.91,1.6 1047.51,6.6 1086.7079186095739,7 C 1125.91,7.4 1145.51,3.6 1184.7079186095739,4 C 1223.91,4.4 1243.51,9.8 1282.7079186095739,9 C 1321.91,8.2 1341.51,0.4 1380.7079186095739,0 C 1419.91,-0.4 1439.51,6.6 1478.7079186095739,7 C 1517.91,7.4 1537.51,2.2 1576.7079186095739,2 C 1615.91,1.8 1635.51,6 1674.7079186095739,6 C 1713.91,6 1733.51,1.4 1772.7079186095739,2 C 1811.91,2.6 1831.51,9.2 1870.7079186095739,9 C 1909.91,8.8 1950.85,1.2 1968.7079186095739,1 C 1986.57,0.8 1961.74,6.6 1960,8" stroke="rgba(238, 238, 238, 1)" stroke-width="2"></path><path d="M -108.64057388534478,1 C -89.04,2 -49.84,5.8 -10.640573885344777,6 C 28.56,6.2 48.16,1.8 87.35942611465522,2 C 126.56,2.2 146.16,7.4 185.35942611465524,7 C 224.56,6.6 244.16,-0.2 283.3594261146552,0 C 322.56,0.2 342.16,7.6 381.3594261146552,8 C 420.56,8.4 440.16,1.6 479.3594261146552,2 C 518.56,2.4 538.16,10.2 577.3594261146552,10 C 616.56,9.8 636.16,1.4 675.3594261146552,1 C 714.56,0.6 734.16,7.8 773.3594261146552,8 C 812.56,8.2 832.16,1.6 871.3594261146552,2 C 910.56,2.4 930.16,9.8 969.3594261146552,10 C 1008.56,10.2 1028.16,3 1067.3594261146552,3 C 1106.56,3 1126.16,10.2 1165.3594261146552,10 C 1204.56,9.8 1224.16,2.4 1263.3594261146552,2 C 1302.56,1.6 1322.16,7.6 1361.3594261146552,8 C 1400.56,8.4 1420.16,3.6 1459.3594261146552,4 C 1498.56,4.4 1518.16,10 1557.3594261146552,10 C 1596.56,10 1616.16,4.4 1655.3594261146552,4 C 1694.56,3.6 1714.16,8.4 1753.3594261146552,8 C 1792.56,7.6 1812.16,2.2 1851.3594261146552,2 C 1890.56,1.8 1927.63,7 1949.3594261146552,7 C 1971.09,7 1957.87,3 1960,2" stroke="rgba(238, 238, 238, 1)" stroke-width="2"></path><path d="M -149.5996706060343,9 C -130,7.8 -90.8,2.8 -51.59967060603429,3 C -12.4,3.2 7.2,10.2 46.40032939396571,10 C 85.6,9.8 105.2,2.2 144.4003293939657,2 C 183.6,1.8 203.2,8.6 242.4003293939657,9 C 281.6,9.4 301.2,4 340.4003293939657,4 C 379.6,4 399.2,9.2 438.4003293939657,9 C 477.6,8.8 497.2,2.8 536.4003293939658,3 C 575.6,3.2 595.2,10.6 634.4003293939658,10 C 673.6,9.4 693.2,0.4 732.4003293939658,0 C 771.6,-0.4 791.2,7.6 830.4003293939658,8 C 869.6,8.4 889.2,2 928.4003293939658,2 C 967.6,2 987.2,8 1026.4003293939656,8 C 1065.6,8 1085.2,2.4 1124.4003293939656,2 C 1163.6,1.6 1183.2,5.8 1222.4003293939656,6 C 1261.6,6.2 1281.2,2.6 1320.4003293939656,3 C 1359.6,3.4 1379.2,7.8 1418.4003293939656,8 C 1457.6,8.2 1477.2,3.8 1516.4003293939656,4 C 1555.6,4.2 1575.2,9.2 1614.4003293939656,9 C 1653.6,8.8 1673.2,2.8 1712.4003293939656,3 C 1751.6,3.2 1771.2,10 1810.4003293939656,10 C 1849.6,10 1878.48,3.2 1908.4003293939656,3 C 1938.32,2.8 1949.68,7.8 1960,9" stroke="rgba(238, 238, 238, 1)" stroke-width="2"></path></g><defs><mask id="SvgjsMask1223"><rect width="1960" height="10" fill="#ffffff"></rect></mask></defs></svg>

<?xml version="1.0" encoding="UTF-8"?>
<svg preserveAspectRatio="none" version="1.1" viewBox="0 0 1960 10" xmlns="http://www.w3.org/2000/svg">
<g fill="none" mask="url(#a)" stroke="rgba(238, 238, 238, 1)" stroke-width="2">
<path d="m-21.016 10c19.596-1.6 58.796-7.2 98-8 39.196-0.8 58.796 4 98 4 39.196 0 58.796-4 98-4 39.196 0 58.796 4.2 98 4 39.196-0.2 58.796-5.2 98-5 39.196 0.2 58.796 6 98 6 39.196 0 58.796-6.6 98-6 39.196 0.6 58.796 8.4 98 9 39.196 0.6 58.796-5.6 98-6 39.196-0.4 58.796 4.2 98 4 39.196-0.2 58.796-4.6 98-5 39.196-0.4 58.796 3.6 98 3 39.196-0.6 58.796-6.8 98-6 39.196 0.8 58.796 9.2 98 10 39.196 0.8 58.796-5.2 98-6 39.196-0.8 58.796 2.4 98 2 39.196-0.4 58.796-4.8 98-4 39.196 0.8 58.796 8 98 8 39.196 0 58.796-7.8 98-8 39.196-0.2 58.796 6.6 98 7 39.196 0.4 93.796-4.8 98-5 4.2058-0.2-61.584 3.2-76.984 4"/>
<path d="m-147.52 7c19.599-0.6 58.799-3.4 98-3 39.199 0.4 58.799 5.6 98 5 39.199-0.6 58.799-8 98-8 39.199 0 58.799 8.2 98 8 39.199-0.2 58.799-8.6 98-9 39.199-0.4 58.799 6.2 98 7 39.199 0.8 58.799-3.4 98-3 39.199 0.4 58.799 5.6 98 5 39.199-0.6 58.799-7.8 98-8 39.199-0.2 58.799 7 98 7 39.199 0 58.799-6.8 98-7 39.199-0.2 58.799 6 98 6 39.199 0 58.799-6 98-6 39.199 0 58.799 6.2 98 6 39.199-0.2 58.799-7.6 98-7 39.199 0.6 58.799 9.6 98 10 39.199 0.4 58.799-7.4 98-8 39.199-0.6 58.799 4.8 98 5 39.199 0.2 58.799-3.8 98-4 39.199-0.2 58.799 3.2 98 3 39.199-0.2 68.499-4 98-4 29.499 0 39.619 3.2 49.519 4"/>
<path d="m-89.292 6c19.602-1 58.802-5.4 98-5 39.202 0.4 58.802 6.6 98 7 39.202 0.4 58.802-5 98-5 39.202 0 58.802 4.8 98 5 39.202 0.2 58.802-3.8 98-4 39.202-0.2 58.802 3.2 98 3 39.202-0.2 58.802-3.8 98-4 39.202-0.2 58.802 3.2 98 3 39.202-0.2 58.802-4.6 98-4 39.202 0.6 58.802 7 98 7 39.202 0 58.802-6.6 98-7 39.202-0.4 58.802 4.6 98 5 39.202 0.4 58.802-3.4 98-3 39.202 0.4 58.802 5.8 98 5 39.202-0.8 58.802-8.6 98-9 39.202-0.4 58.802 6.6 98 7 39.202 0.4 58.802-4.8 98-5 39.202-0.2 58.802 4 98 4 39.202 0 58.802-4.6 98-4 39.202 0.6 58.802 7.2 98 7 39.202-0.2 80.142-7.8 98-8 17.862-0.2-6.9679 5.6-8.7079 7"/>
<path d="m-108.64 1c19.601 1 58.801 4.8 98 5 39.201 0.2 58.801-4.2 98-4 39.201 0.2 58.801 5.4 98 5 39.201-0.4 58.801-7.2 98-7 39.201 0.2 58.801 7.6 98 8 39.201 0.4 58.801-6.4 98-6 39.201 0.4 58.801 8.2 98 8 39.201-0.2 58.801-8.6 98-9 39.201-0.4 58.801 6.8 98 7 39.201 0.2 58.801-6.4 98-6 39.201 0.4 58.801 7.8 98 8 39.201 0.2 58.801-7 98-7 39.201 0 58.801 7.2 98 7 39.201-0.2 58.801-7.6 98-8 39.201-0.4 58.801 5.6 98 6 39.201 0.4 58.801-4.4 98-4 39.201 0.4 58.801 6 98 6 39.201 0 58.801-5.6 98-6 39.201-0.4 58.801 4.4 98 4 39.201-0.4 58.801-5.8 98-6 39.201-0.2 76.271 5 98 5 21.731 0 8.5106-4 10.641-5"/>
<path d="m-149.6 9c19.6-1.2 58.8-6.2 98-6 39.2 0.2 58.8 7.2 98 7 39.2-0.2 58.8-7.8 98-8 39.2-0.2 58.8 6.6 98 7 39.2 0.4 58.8-5 98-5 39.2 0 58.8 5.2 98 5 39.2-0.2 58.8-6.2 98-6 39.2 0.2 58.8 7.6 98 7 39.2-0.6 58.8-9.6 98-10 39.2-0.4 58.8 7.6 98 8 39.2 0.4 58.8-6 98-6 39.2 0 58.8 6 98 6 39.2 0 58.8-5.6 98-6 39.2-0.4 58.8 3.8 98 4 39.2 0.2 58.8-3.4 98-3 39.2 0.4 58.8 4.8 98 5 39.2 0.2 58.8-4.2 98-4 39.2 0.2 58.8 5.2 98 5 39.2-0.2 58.8-6.2 98-6 39.2 0.2 58.8 7 98 7 39.2 0 68.08-6.8 98-7 29.92-0.2 41.28 4.8 51.6 6"/>
</g>
<defs>
<mask id="a">
<rect width="1960" height="10" fill="#fff"></rect>
</mask>
</defs>
</svg>
